X:0204
T:A German Quick March.
M:2/4
L:1/8
Q:1/2=66
I: :: :: ::
Z:Jack Campin * www.campin.me.uk * 2009
K:D
 f2 ef | de/d/ cA |Bdce|(d/c/d/e/) dd |\
 f2 ef | de/d/ cA |Bdce| d2        d2:|
 FAFA  | G2    GG |FEDC|(D/C/D/)E/ DD |\
 FAFA  | G2    Gg |fedc| d2        d2:|
(d2 d)f|(e2    e)g|fedc| d/c/d/e/  dd |\
 d2 df | e2    eg |fedc| d2        d2:|
<end>
<start>
